X: 21
T: The Groves of Blackpool
M: 6/8
L: 1/8
B: "O'Neill's 21"
N: "Moderate" "collected by F. O'Neill"
Z: "Transcribed by Norbert Paap, norbertp@bdu.uva.nl"
K:Cm
c | B>AG GAF | E C3zD | EFG G=A=B | c3-c2 c |
B>AG GAF | E C3zD | EFG FED | C3-C2 ||
c/2-d/2 | e>de fdc | B G3zG | c>de fde | f3-f2 f |
(efg) {g}fed | e c3zc | BAG FG=B | c3-c2 ||


